svgs/regular/arrow-down-to-dotted-line.svg

<svg xmlns="http://www.w3.org/2000/svg" viewBox="0 0 448 512"><!-- Font Awesome Pro 6.0.0-alpha2 by @fontawesome - https://fontawesome.com License - https://fontawesome.com/license (Commercial License) --><path d="M224 416C206.326 416 192 430.328 192 448S206.326 480 224 480S256 465.672 256 448S241.674 416 224 416ZM32 416C14.326 416 0 430.328 0 448S14.326 480 32 480S64 465.672 64 448S49.674 416 32 416ZM128 416C110.326 416 96 430.328 96 448S110.326 480 128 480S160 465.672 160 448S145.674 416 128 416ZM320 416C302.326 416 288 430.328 288 448S302.326 480 320 480S352 465.672 352 448S337.674 416 320 416ZM416 416C398.326 416 384 430.328 384 448S398.326 480 416 480S448 465.672 448 448S433.674 416 416 416ZM206.531 360.726C215.594 370.425 232.406 370.425 241.469 360.726L369.469 224.519C378.563 214.847 378.094 199.636 368.438 190.562C358.813 181.452 343.625 181.89 334.531 191.593L248 283.647V72.038C248 58.765 237.25 47.999 224 47.999S200 58.765 200 72.038V283.647L113.469 191.593C108.75 186.554 102.375 184.019 96 184.019C90.094 184.019 84.188 186.179 79.562 190.562C69.906 199.636 69.438 214.847 78.531 224.519L206.531 360.726Z"/></svg>

<svg xmlns="http://www.w3.org/2000/svg" viewBox="0 0 448 512"><!--! Font Awesome Pro 6.0.0-alpha3 by @fontawesome - https://fontawesome.com License - https://fontawesome.com/license (Commercial License) --><path d="M224 416c-17.67 0-32 14.33-32 32s14.33 32 32 32s32-14.33 32-32S241.7 416 224 416zM32 416c-17.67 0-32 14.33-32 32s14.33 32 32 32s32-14.33 32-32S49.67 416 32 416zM128 416c-17.67 0-32 14.33-32 32s14.33 32 32 32s32-14.33 32-32S145.7 416 128 416zM320 416c-17.67 0-32 14.33-32 32s14.33 32 32 32s32-14.33 32-32S337.7 416 320 416zM416 416c-17.67 0-32 14.33-32 32s14.33 32 32 32s32-14.33 32-32S433.7 416 416 416zM206.5 360.7c9.062 9.699 25.88 9.699 34.94 0l128-136.2c9.094-9.672 8.625-24.88-1.031-33.96c-9.625-9.109-24.81-8.672-33.91 1.031L248 283.6v-211.6c0-13.27-10.75-24.04-24-24.04S200 58.76 200 72.04v211.6l-86.53-92.05C108.8 186.6 102.4 184 96 184c-5.906 0-11.81 2.16-16.44 6.543C69.91 199.6 69.44 214.8 78.53 224.5L206.5 360.7z"/></svg>
